X:2727
T:Castle Grove. HSJJ.100
M:6/8
L:1/8
S:HSJ Jackson,Wyresdale,Lancs.1823
R:Jig
O:England
A:Lancashire
H:1823
Z:Chris Partington.
K:A
E|A2cc2e|edB Bcd|ecA AGA|BGE EFG|A2cc2e|!edB Bcd|F2B GFG|A3A2:|
|A|e2e edc|fdB B2c|!d2d dcB|ecA AGA|F2B ~BAB|G2c cAc|A2d dec|BcA"DC" GFE
|


